X:202
T: ALLE DIE DAS RINGLEIN LIEBEN
N: K2603
O: Europa, Mitteleuropa, Deutschland, Berlin; Dessau
R: Kinder - Lied, Pfaender - Spiel
M: 2/4
L: 1/16
K: G
 | d2d2d2c2 | B2B2B2G2 |
A2A2B2B2 | dcBAG2z2 |
d2d2d2B2 | B2B2B2G2 |
A2A2B2B2 | dcBAG2z2

@@@ Tune index: 7539
